dist/svgs/unicons/line/graph-bar.svg

<svg xmlns="http://www.w3.org/2000/svg" viewBox="0 0 24 24"><path d="M6 13H2a1 1 0 00-1 1v8a1 1 0 001 1h4a1 1 0 001-1v-8a1 1 0 00-1-1zm-1 8H3v-6h2zM22 9h-4a1 1 0 00-1 1v12a1 1 0 001 1h4a1 1 0 001-1V10a1 1 0 00-1-1zm-1 12h-2V11h2zM14 1h-4a1 1 0 00-1 1v20a1 1 0 001 1h4a1 1 0 001-1V2a1 1 0 00-1-1zm-1 20h-2V3h2z"/></svg>

<svg xmlns="http://www.w3.org/2000/svg" viewBox="0 0 24 24"><path d="M6,13H2a1,1,0,0,0-1,1v8a1,1,0,0,0,1,1H6a1,1,0,0,0,1-1V14A1,1,0,0,0,6,13ZM5,21H3V15H5ZM22,9H18a1,1,0,0,0-1,1V22a1,1,0,0,0,1,1h4a1,1,0,0,0,1-1V10A1,1,0,0,0,22,9ZM21,21H19V11h2ZM14,1H10A1,1,0,0,0,9,2V22a1,1,0,0,0,1,1h4a1,1,0,0,0,1-1V2A1,1,0,0,0,14,1ZM13,21H11V3h2Z"/></svg>
